X:1
T:Title
%%score { 1 | 2 }
L:1/8
Q:1/4=100
M:4/4
K:F
V:1 treble nm="Grand Piano"
V:2 bass 
V:1
 A>A A>G F2 C2 | F>F A>[GB] [Ac]4 | [Fd]>[Fd] [Fd]>[Fd] c2 A2 | G>G G>A [EG]4 | A>A A>G F2 C2 | %5
w: Frank~M.~Davis * * * * *|||||
 F>G A>[GB] [Ac]4 | [Fd]>[Fd] [Fd]>[Fd] [Fc]2 [FA]2 | [Ac]>[Ac] [Gd]>[Be] [Af]4 | c>c c>c c4 | %9
w: ||||
 [Fd]>[Fd] [Fd]>[Fd] [Fd]4 | c>c c>c f2 c2 | c>c c>A [EG]4 | A>A A>G F2 C2 | F>G A>[GB] [Ac]4 | %14
w: |||||
 [Fd]>[Fd] [Fd]>[Fd] [Fc]2 [FA]2 |[M:8/4] [Ac]>[Ac][Gd]>[Be] [Af]4 z8 |] %16
w: ||
V:2
 [F,CF]>[F,CF] [F,CF]>[F,B,F] [F,A,C]2 [F,A,]2 | [F,A,C]>[F,A,C] [F,CF]>[F,C] [F,C]4 | %2
 [B,,B,]>[B,,B,] [B,,B,]>[B,,B,][K:treble] [F,A,F]2 [F,CF]2 | %3
 [G,CE]>[G,CE] [G,=B,F]>[G,B,F][K:bass] [C,C]4 | [F,CF]>[F,CF] [F,CF]>[F,B,F] [F,A,C]2 [F,A,]2 | %5
 [F,A,C]>[F,B,C] [F,CF]>[F,C] [F,C]4 | [B,,B,]>[B,,B,] [B,,B,]>[B,,B,] [F,A,]2 [F,C]2 | %7
 [F,C]>[F,C] [C,C]>[C,C] [F,C]4 | [F,A,F]>[F,A,F] [F,A,F]>[F,A,F] [F,A,F]4 | %9
 [B,,B,]>[B,,B,] [B,,B,]>[A,,B,] [B,,B,]4 | %10
 [F,A,F]>[F,A,F] [F,A,F]>[F,A,F] [A,CF]2[K:bass] [F,A,F]2 | %11
 [F,A,F]>[F,A,F] [F,A,F]>[F,A,F] [C,C]4 | [F,CF]>[F,CF] [F,CF]>[F,B,F] [F,A,C]2 [F,A,]2 | %13
 [F,A,C]>[F,B,C] [F,CF]>[F,C] [F,C]4 | [B,,B,]>[B,,B,] [B,,B,]>[B,,B,] [F,A,]2 [F,C]2 | %15
[M:8/4] [F,C]>[F,C][C,C]>[C,C] [F,C]4 z8 |] %16

